X: 8445
T: Cracked Pot, The
R: reel
M: 4/4
K: Amajor
c df|:eccB cABc|dcBA B2 AB|caga faec|feAc Bcdf|
eccB cA A/B/c|dcBA B2 AB|caga faec|1 BEGB A2 c/d/f:|2 BEGB Aaag||
aAce fAdf|eAdc B2 ag|aAce fAdf|efac' b4|
aAce fAdf|eAdc B2 AG|FAdf eAGA|FdBG A4:|

